icons/black/icsdroid.svg

<svg xmlns="http://www.w3.org/2000/svg" viewBox="0 0 38.1 38.1"><defs><style>.a{fill:none;stroke:#000;stroke-linecap:round;stroke-linejoin:round;}</style></defs><path class="a" d="M7.45,5.5a2,2,0,0,0-1.95,2V40.6a2,2,0,0,0,2,2H40.6a2,2,0,0,0,2-2V7.45a2,2,0,0,0-2-1.95ZM31.8,9l6,4.55-6,4.55m1,19.94H38m-5.23-9,2.62-1.42m0,0V38m-8.0619-5.2238A2.6119,2.6119,0,0,0,29.94,30.1643h0a2.6119,2.6119,0,0,0-2.6119-2.6119m0,10.4476A2.6119,2.6119,0,0,0,29.94,35.3881h0a2.6119,2.6119,0,0,0-2.6119-2.6119m-4.31,4.3423A4.4505,4.4505,0,0,0,26.2675,38h1.0606m-4.3112-9.5772a4.45,4.45,0,0,1,3.2517-.8727l1.0607.0023m-2.662,5.2238h2.6608" transform="translate(-5 -5)"/><line class="a" x1="18.49" y1="8.51" x2="32.76" y2="8.51"/><polyline class="a" points="11.2 20.24 5.24 15.69 11.2 11.14"/><line class="a" x1="19.51" y1="15.69" x2="5.24" y2="15.69"/></svg>

<?xml version="1.0" encoding="utf-8"?>
<!-- Generator: Adobe Illustrator 26.0.3, SVG Export Plug-In . SVG Version: 6.00 Build 0)  -->
<svg version="1.1" id="Layer_1" xmlns="http://www.w3.org/2000/svg" xmlns:xlink="http://www.w3.org/1999/xlink" x="0px" y="0px"
	 viewBox="0 0 48 48" style="enable-background:new 0 0 48 48;" xml:space="preserve">
<style type="text/css">
	.st0{fill:none;stroke:#000;stroke-linecap:round;stroke-linejoin:round;}
</style>
<path class="st0" d="M7.4,5.5c-1.1,0-1.9,0.9-1.9,2v33c0,1.1,0.9,2,2,2h33c1.1,0,2-0.9,2-2V7.4c0-1.1-0.9-1.9-2-1.9H7.4z M31.7,9
	l6,4.5l-6,4.5 M32.7,38h5.2 M32.7,29l2.6-1.4 M35.3,27.6v10.4 M27.3,32.7c1.4,0,2.6-1.2,2.6-2.6l0,0l0,0c0-1.4-1.2-2.6-2.6-2.6l0,0
	 M27.3,37.9c1.4,0,2.6-1.2,2.6-2.6l0,0l0,0c0-1.4-1.2-2.6-2.6-2.6l0,0 M23,37c0.9,0.7,2.1,1,3.2,0.9h1.1 M23,28.4
	c0.9-0.7,2.1-1,3.2-0.9l1.1,0 M24.6,32.7h2.7"/>
<line class="st0" x1="23.4" y1="13.5" x2="37.7" y2="13.5"/>
<polyline class="st0" points="16.2,25.2 10.2,20.6 16.2,16.1 "/>
<line class="st0" x1="24.5" y1="20.6" x2="10.2" y2="20.6"/>
</svg>
